X: 31
T:Bouchards Quadrille
M:6/8
L:1/8
R:Quadrille
D:Chris Wood and Andy Cutting RUFCD01
N:Posted to uk.music.folk 05/12/2003
Z:Steve Mansfield 05 December 2003
K:D
ABc |: dfd cec | BcB B2A | dfd cec | BcB B2A | ege ded |
cdc c2B | ABA ABc |1 dcB ABc :|2 d3 dAG |: F3 FAd |
f3 f2d | e2d c2d | g3 g2f | eee e2d |
ccc c2B | ABA ABc |1 dcB ABG :|2 d3 ||

